X: 13
T: Tick Dance Song (b)
C: Anon.
%%abc-version 2.0
%%abcx-abcm2ps-target-version 5.9.1 (29 Sep 2008)
%%abc-creator hum2abc beta
%%abcx-conversion-date 2020/08/10 20:56:09
%%abc-copyright Electronic Copyright 2000 David Huron
%%abc-edited-by David Huron
%%abcx-initial-encoding-date August 27, 2000
%%humdrum-veritas 2845688276
%%humdrum-veritas-data 357439537
%%linebreak <none>
%%barnumbers 0
L: 1/8
M: 2/4
Q: 1/4=132
K: C clef=bass
C2G,2[M:3/4] | 
A,2>B,2 A, E,[M:2/4] | 
G,4 | 
G, E,E,2 | 
G,2G, E, | 
E,3z | 
E,2E, z | 
B, A, G, E, | 
G,4 | 
G, E, E, z | 
G,2G, E, | 
E,3z[M:3/4] | 
E, E, E, zA,2[M:2/4] | 
A,3E, | 
G,4 | 
G, E, E, z | 
G,2G, E, | 
E,3z[M:3/4] | 
E, E, E, z/ C/ (3C A, B,[M:2/4] | 
A,4 | 
G,2E,2 | 
C> A, A,3/ E,/ | 
G,3z | 
G, E,E,2 | 
G,2G, E, | 
E,3z[M:3/4] | 
E,2E, z/ A,< A, E,/[M:2/4] | 
G,4 | 
G, E, E, z | 
G,2G, E, | 
E,4[M:3/4] | 
E,2E, zA,2[M:2/4] | 
A,3E, | 
G,3z | 
G, E, E, z | 
G,2G, E, | 
E,4[M:3/4] | 
E, E, E, z/ C/ (3C A, B,[M:2/4] | 
A,3z | 
C2G,2 | 
C> A, A,3/ E,/ | 
G,4 | 
G, E,E,2 | 
G,2G, E, | 
E,4[M:3/4] | 
E, E, E, zA,2[M:2/4] | 
A,3E, | 
G,3z | 
G, E, E, z | 
G,2G, E, | 
E,4 | 
E, E, E, z |]  


